app/public/logos/ethereum.svg

<svg xmlns="http://www.w3.org/2000/svg" width="350pt" height="350pt" style="isolation:isolate" viewBox="0 0 350 350"><defs><clipPath id="a"><path d="M0 0h350v350H0z"/></clipPath></defs><g clip-path="url(#a)"><path d="M0 0h350v350H0z" style="fill:#627eea"/><g fill="#FFF"><path fill-opacity=".602" d="M174.978 43.777v97.016l81.999 36.641z"/><path d="M174.978 43.777 92.969 177.434l82.009-36.641z"/><path fill-opacity=".602" d="M174.978 240.302v65.921l82.053-113.521z"/><path d="M174.978 306.223v-65.932l-82.009-47.589z"/><path fill-opacity=".2" d="m174.978 225.045 81.999-47.611-81.999-36.619z"/><path fill-opacity=".602" d="m92.969 177.434 82.009 47.611v-84.23z"/></g></g></svg>

<?xml version="1.0" encoding="UTF-8" standalone="no"?><!-- Generator: Gravit.io --><svg xmlns="http://www.w3.org/2000/svg" xmlns:xlink="http://www.w3.org/1999/xlink" style="isolation:isolate" viewBox="0 0 350 350" width="350pt" height="350pt"><defs><clipPath id="_clipPath_TIzjvn6QWalag8pFK51rSDjAeAszPwHF"><rect width="350" height="350"/></clipPath></defs><g clip-path="url(#_clipPath_TIzjvn6QWalag8pFK51rSDjAeAszPwHF)"><rect width="350" height="350" style="fill:rgb(98,126,234)"/><g><g><path d=" M 174.978 43.777 L 174.978 140.793 L 256.977 177.434 L 174.978 43.777 Z " fill="rgb(255,255,255)" fill-opacity="0.602"/><path d=" M 174.978 43.777 L 92.969 177.434 L 174.978 140.793 L 174.978 43.777 Z " fill="rgb(255,255,255)"/><path d=" M 174.978 240.302 L 174.978 306.223 L 257.031 192.702 L 174.978 240.302 Z " fill="rgb(255,255,255)" fill-opacity="0.602"/><path d=" M 174.978 306.223 L 174.978 240.291 L 92.969 192.702 L 174.978 306.223 Z " fill="rgb(255,255,255)"/><path d=" M 174.978 225.045 L 256.977 177.434 L 174.978 140.815 L 174.978 225.045 Z " fill="rgb(255,255,255)" fill-opacity="0.2"/><path d=" M 92.969 177.434 L 174.978 225.045 L 174.978 140.815 L 92.969 177.434 Z " fill="rgb(255,255,255)" fill-opacity="0.602"/></g></g></g></svg>
